public/images/facilities/tram_shenzhen.svg

<svg xmlns="http://www.w3.org/2000/svg" width="20" height="20" fill="none" viewBox="0 0 80 80">
  <rect width="80" height="80" fill="#666" rx="8"/>
  <path stroke="rgba(255, 255, 255, 1)" stroke-width="1.5" d="m54 33-11-7 11-7 11 7z"/>
  <path fill="#fff" d="M48 30h12a1 1 0 0 1 1 1v1H47v-1a1 1 0 0 1 1-1M70 47h2V36h-2zM58 47h2V36h-2zM45 47h2V36h-2zM33 47h2V36h-2zM20 47h2V36h-2zM8 47h2V36H8zM10 32h60a2 2 0 0 1 2 2v2H8v-2a2 2 0 0 1 2-2M8 47h64v4a6 6 0 0 1-6 6H14a6 6 0 0 1-6-6z"/>
  <circle cx="63.5" cy="60.5" r="2.5" fill="#fff"/>
  <circle cx="57.5" cy="60.5" r="2.5" fill="#fff"/>
  <circle cx="22.5" cy="60.5" r="2.5" fill="#fff"/>
  <circle cx="16.5" cy="60.5" r="2.5" fill="#fff"/>
</svg>

<svg xmlns="http://www.w3.org/2000/svg" xmlns:xlink="http://www.w3.org/1999/xlink" width="20" height="20" viewBox="0 0 80 80" fill="none"><g><rect  x="0" y="0" width="80" height="80" rx="8"    fill="#666666" ></rect><path d="M54 33L43 26L54 19L65 26L54 33Z" stroke="rgba(255, 255, 255, 1)" stroke-width="1.5"   ></path><path     fill="#FFFFFF"  d="M48 30L60 30C60.5523 30 61 30.4477 61 31L61 32L47 32L47 31C47 30.4477 47.4477 30 48 30Z"></path><path d="M70 47L72 47L72 36L70 36L70 47Z"   fill="#FFFFFF" ></path><path d="M58 47L60 47L60 36L58 36L58 47Z"   fill="#FFFFFF" ></path><path d="M45 47L47 47L47 36L45 36L45 47Z"   fill="#FFFFFF" ></path><path d="M33 47L35 47L35 36L33 36L33 47Z"   fill="#FFFFFF" ></path><path d="M20 47L22 47L22 36L20 36L20 47Z"   fill="#FFFFFF" ></path><path d="M8 47L10 47L10 36L8 36L8 47Z"   fill="#FFFFFF" ></path><path     fill="#FFFFFF"  d="M10 32L70 32C71.1046 32 72 32.8954 72 34L72 36L8 36L8 34C8 32.8954 8.89543 32 10 32Z"></path><path     fill="#FFFFFF"  d="M8 47L72 47L72 51C72 54.3137 69.3137 57 66 57L14 57C10.6863 57 8 54.3137 8 51L8 47Z"></path><circle cx="63.5" cy="60.5" r="2.5"   fill="#FFFFFF" ></circle><circle cx="57.5" cy="60.5" r="2.5"   fill="#FFFFFF" ></circle><circle cx="22.5" cy="60.5" r="2.5"   fill="#FFFFFF" ></circle><circle cx="16.5" cy="60.5" r="2.5"   fill="#FFFFFF" ></circle></g></svg>
